X:54
T: Schottische Kerlou
C: Calum Stewart
R: schottische
M: C
L: 1/8
K: Gmaj
"G" g4 "D" f2 ed  | "C/G" ABc2 "G"BA (3GAB    | "C" c2 cc Bd "D" A2 | z2 AG ABGF |
"C" E3 E EDDE     | "G" GD"D"GA "Em" BD (3GAB | "C" cBAG "D" A3 G   | "G" G4 GABd :|
"C" e3 e edcB | "D" AGGA "Em" B2 (3GAB   | "C" cBAG "G/B" d3 B | "D" A2 AG ABGF |
"C" E3 E EDDE | "D" GDGA "Em" BD (3GAB   | "C" cBAG "D" A3 G  | "G" G4 GABd ||
"C" e3 d efgf | "C"e2"D"d2 "Em" B3 B        | "C" cBAG "G/B" d3 B    | "D" A2 AG ABGF |
"C" E3 E EDDE | GD"D"GA "Em" BD (3GAB    | "C" cBAG "D" A3 G  | "G" G4 GABd |]


